X:405
T:Logan Water
D:Aly Bain/Phil Cunningham, The Ruby
Z:Nigel Gatherer
M:4/4
L:1/8
K:Emin
E>F | G2 F>E E>FGE  | D>EG<E D2 E>F |
      G2 F>E E>DEF  | G>FG<A B2 A>B |
      c2 BA  B2 AG  | A>GF<E D2 GF  |
      E>FGA  B<d B2 | G2 E2  E2    ||
Bd  | B2 E2  E>DEF  | G>FGE  D2 Bd  |
      B2 E2  E>DEF  | G>FG<A B2 A>B |
      c2 BA  B2 AG  | A>GF<E D2 GF  |
      E>FGA  B<d B2 | G2 E2  E2    |]
<end>
<start>
